svg/fluentui-system-icons/ic_fluent_inking_tool_32_regular.svg

<svg width="32" height="32" viewBox="0 0 32 32" fill="none" xmlns="http://www.w3.org/2000/svg">
<path d="M4.01758 2.95117C4.01758 2.39889 3.56986 1.95117 3.01758 1.95117C2.46529 1.95117 2.01758 2.39889 2.01758 2.95117V6.95117C2.01758 8.60803 3.36072 9.95117 5.01758 9.95117H5.47946L12.0335 22.9028C12.2685 23.3673 12.67 23.7132 13.1442 23.8829L13.1434 23.8891C13.0714 24.4967 13.0161 25.2136 13.0161 25.8478C13.0161 26.7077 13.2087 27.6701 13.6398 28.4543C14.0686 29.2345 14.8356 29.9891 15.9839 30.003C15.9893 30.003 15.9946 30.0032 16 30.0031C16.0054 30.0032 16.0107 30.0032 16.0161 30.0032C17.1644 29.9893 17.9314 29.2345 18.3602 28.4543C18.7913 27.6701 18.9839 26.7077 18.9839 25.8478C18.9839 25.2136 18.9286 24.4967 18.8566 23.8891C18.8562 23.8863 18.8559 23.8836 18.8556 23.8808C19.3269 23.7104 19.7259 23.3657 19.9599 22.9035L26.5205 9.95117H27.0176C28.6744 9.95117 30.0176 8.60803 30.0176 6.95117V2.95117C30.0176 2.39889 29.5699 1.95117 29.0176 1.95117C28.4653 1.95117 28.0176 2.39889 28.0176 2.95117V6.95117C28.0176 7.50346 27.5699 7.95117 27.0176 7.95117H5.01758C4.46529 7.95117 4.01758 7.50346 4.01758 6.95117V2.95117ZM16.8552 23.9998C16.8604 24.0407 16.8655 24.0822 16.8705 24.1245C16.9363 24.6802 16.9839 25.3149 16.9839 25.8478C16.9839 26.4471 16.8432 27.0623 16.6075 27.491C16.3811 27.9029 16.1652 27.9973 16 28.0029C15.8348 27.9973 15.6189 27.9029 15.3925 27.491C15.1568 27.0623 15.0161 26.4471 15.0161 25.8478C15.0161 25.3149 15.0637 24.6802 15.1295 24.1245L15.1448 23.9998H16.8552ZM24.2786 9.95117L18.1758 21.9998H13.818L7.72096 9.95117H24.2786Z" fill="#212121"/>
</svg>

<svg xmlns="http://www.w3.org/2000/svg" width="32" height="32"><path d="M4.018 2.951a1 1 0 0 0-2 0v4a3 3 0 0 0 3 3h.461l6.554 12.952a2 2 0 0 0 1.111.98v.006a17.468 17.468 0 0 0-.128 1.959c0 .86.193 1.822.624 2.606.429.78 1.196 1.535 2.344 1.549h.032c1.148-.014 1.915-.768 2.344-1.549.431-.784.624-1.746.624-2.606a17.468 17.468 0 0 0-.128-1.967 2 2 0 0 0 1.104-.977L26.52 9.95h.498a3 3 0 0 0 3-3v-4a1 1 0 1 0-2 0v4a1 1 0 0 1-1 1h-22a1 1 0 0 1-1-1v-4ZM16.855 24l.015.125c.066.555.114 1.19.114 1.723 0 .6-.14 1.214-.377 1.643-.226.412-.442.506-.607.512-.165-.006-.381-.1-.607-.512-.236-.429-.377-1.044-.377-1.643 0-.533.048-1.168.114-1.723l.015-.125h1.71ZM24.28 9.95 18.176 22h-4.358L7.721 9.95h16.558Z"/></svg>
